docs/img/icons/safari-pinned-tab.svg

<svg height="312" viewBox="0 0 312 312" width="312" xmlns="http://www.w3.org/2000/svg"><path d="m142.269 12.693c.973.254 2.323.237 3-.037s-.119-.481-1.769-.461-2.204.244-1.231.498m15.544-.01c.721.289 1.584.253 1.916-.079s-.258-.568-1.312-.525c-1.165.048-1.402.285-.604.604m9.187.385c7.509.931 30.058 8.2 41 13.217 8.014 3.675 14.195 7.383 20.36 12.215 15.841 12.416 20.676 16.47 23.555 19.75 3.403 3.876 6.085 4.868 6.085 2.25 0-2.344 2.198-1.767 4.764 1.25 15.98 18.79 23.448 32.988 29.777 56.611 1.306 4.873 3.026 9.856 3.824 11.073.797 1.217 1.66 3.08 1.916 4.139 1.117 4.609-.356-4.731-1.745-11.064-6.218-28.363-21.771-54.746-43.809-74.315-11.591-10.293-18.918-15.343-31.383-21.632-18.732-9.449-38.335-14.715-53.725-14.431l-7.119.132zm-36.171.436c-.277.277-3.164.98-6.416 1.563-21.996 3.939-50.408 19.056-69.413 36.933-2.936 2.761-1.545 1.936 4-2.376 22.79-17.717 43.972-28.438 65.5-33.152 4.4-.963 9.35-2.098 11-2.521l3-.771-3.583-.09c-1.971-.049-3.81.137-4.088.414m-48.573 48.141c-3.827 1.887-6.81 6.356-7.798 11.685-.755 4.069-.887 4.17-6.729 5.141-4.792.797-10.505 5.769-12.931 11.253-2.396 5.417-3.35 15.64-1.936 20.749.946 3.417.806 4.581-.998 8.307-1.792 3.702-2.038 5.697-1.688 13.688.374 8.563.763 10.069 4.605 17.822 4.075 8.224 12.218 18.695 14.562 18.725.636.008 5.162 2.033 10.057 4.5 4.894 2.467 9.009 4.485 9.143 4.485s-.217-1.819-.782-4.042c-.799-3.15-1.731-4.337-4.224-5.378-6.91-2.887-19.857-18.636-17.91-21.786 1.157-1.871 3.473-.518 5.324 3.11 2.154 4.223 11.249 14.096 12.984 14.096.628 0 1.065-2.322 1.065-5.654 0-5.346-.215-5.838-3.944-9.03-2.168-1.856-5.307-5.759-6.974-8.672-5.626-9.834-7.746-26.302-3.275-25.444 1.272.245 1.727 1.468 1.832 4.924.265 8.801 5.506 21.492 10.604 25.677 1.391 1.142 1.78.632 3.171-4.154 1.995-6.862 1.985-7.269-.273-10.493-5.986-8.545-7.696-27.991-3.31-37.642 3.624-7.974 10.425-13.856 13.02-11.261 1.755 1.755 1.437 2.408-2.303 4.719-2.237 1.383-4.436 4.139-6.25 7.832-2.466 5.022-2.788 6.766-2.711 14.698.071 7.445.537 9.994 2.695 14.75 1.434 3.162 2.998 5.75 3.475 5.75s1.833-1.306 3.013-2.903c1.793-2.425 1.988-3.452 1.188-6.243-1.63-5.685-1.106-14.931 1.126-19.854 2.742-6.048 5.458-8.813 11.416-11.623 5.64-2.659 9.301-2.895 14.75-.951l3.75 1.338v-4.514c0-2.717-.769-5.755-1.931-7.632-2.35-3.795-7.509-6.998-10.157-6.305-1.391.364-2.722-.508-4.667-3.058-5.474-7.177-19.08-10.509-26.989-6.61m28.744 1.855c1.638 1.743 3.408 2.5 5.849 2.5h3.5l-2.349-2.5c-1.638-1.743-3.408-2.5-5.849-2.5h-3.5zm15.736 10.678c2.406 3.638 2.771 5.188 2.821 11.974.031 4.287.347 8.086.703 8.441.356.356 1.747.371 3.092.033 1.953-.49 2.69-1.634 3.66-5.678 1.037-4.321.972-5.702-.444-9.41-2.323-6.081-5.778-9.538-9.534-9.538h-3.062zm-19.856 20.778c-7.45 4.935-10.71 13.076-8.801 21.978l1.044 4.865 3.724-1.59 3.723-1.591-.398-6.259c-.495-7.78 2.266-14.226 7.667-17.896l3.625-2.463h-3.06c-1.718 0-5.02 1.297-7.524 2.956m18.394 11.137c-4.667 2.31-8.09 7.001-8.942 12.251-.542 3.339-.696 3.438-5.954 3.875-13.364 1.108-22.316 16.933-21.09 37.281.935 15.512 3.916 21.478 15.554 31.13 9.58 7.944 10.914 8.421 6.788 2.423-9.613-13.976-11.376-33.21-4.359-47.553 3.108-6.352 6.546-10.366 10.689-12.48 3.274-1.67 4.018-1.752 5.013-.553.942 1.135.546 1.73-2.04 3.067-10.318 5.336-16.479 21.374-13.955 36.333.643 3.816 2.44 9.624 3.993 12.908 3.44 7.273 13.842 18.533 21.181 22.926 8.772 5.252 9.457 5.139 4.919-.809-2.263-2.965-4.363-6.292-4.666-7.392-.304-1.1-2.511-3.451-4.904-5.225-3.06-2.269-5.338-5.231-7.676-9.984-3.157-6.417-3.325-7.317-3.324-17.775.002-9.634.298-11.581 2.361-15.516 6.038-11.521 16.038-16.663 27.198-13.986 8.706 2.089 14.467 9.84 12.046 16.208-.849 2.233-.691 2.624 1.208 2.987 3.646.697 8.437-1.077 10.721-3.971 2.869-3.634 2.331-11.156-1.056-14.761-2.07-2.203-2.176-2.743-1.026-5.217 3.546-7.626 2.99-13.503-1.755-18.532-4.049-4.293-9.115-5.413-14.749-3.262l-4.617 1.764-3.166-2.981c-3.233-3.044-8.304-5.25-12.065-5.248-1.156 0-4.002.942-6.327 2.092m21.167-.158c1.439 1.589 2.174 1.742 4.124.854 3.201-1.459 2.114-2.789-2.279-2.789-3.492 0-3.545.056-1.845 1.935m22.559 3.463c0 .219 1.12 2.356 2.488 4.75 2.81 4.916 3.294 12.32 1.134 17.352-1.139 2.652-1.052 3.321.742 5.763 2.994 4.072 2.891 12.542-.202 16.729-1.286 1.741-2.174 3.329-1.974 3.53.882.882 7.03-4.043 8.433-6.755 2.125-4.11 1.958-11.121-.359-15.048-1.727-2.927-1.772-3.554-.48-6.72 3.159-7.741-1.049-19.999-6.864-19.999-1.605 0-2.918.179-2.918.398m130.232 33.602c0 1.925.206 2.713.457 1.75.252-.963.252-2.537 0-3.5-.251-.963-.457-.175-.457 1.75m-169.973.927c-8.245 5.973-12.296 20.57-8.922 32.145 1.655 5.675 6.951 14.928 8.544 14.928 1.483 0 1.892-10.222.522-13.038-5.181-10.646-2.466-28.834 5.204-34.867 4.395-3.457-.473-2.699-5.348.832m171.027 12.573c.008 2.75.202 3.756.432 2.236.229-1.52.223-3.77-.014-5s-.425.014-.418 2.764m-1 13c.008 2.75.202 3.756.432 2.236.229-1.52.223-3.77-.014-5s-.425.014-.418 2.764m-142.953-2.316c-2.139 1.034-2.123 1.093 1.242 4.458 2.264 2.264 3.623 4.744 4.045 7.384.712 4.449 1.009 4.622 4.157 2.417 3.765-2.637 2.111-10.307-2.994-13.882-2.548-1.785-3.433-1.837-6.45-.377m42.405 4.066c-1.498 1.139-1.429 1.496.783 4.025 2.126 2.431 2.677 2.618 4.453 1.509 2.509-1.567 2.564-2.987.197-5.129-2.19-1.982-3.254-2.062-5.433-.405m-56.32 1.719c-3.124 1.264-7.233 6.63-8.403 10.975-2.428 9.018 3.424 21.112 12.985 26.836 9.058 5.424 14.803 6.723 29.5 6.674 17.117-.058 25.084-2.273 45.089-12.538 15.711-8.062 23.301-10.894 29.343-10.948 5.901-.052 7.316-1.856 6.915-8.816-.19-3.293-.008-6.325.404-6.736.412-.412.749-1.128.749-1.591 0-1.486-3.854 1.51-4.342 3.375-.332 1.27-1.455 1.81-3.814 1.835-9.963.105-22.552 4.922-38.795 14.846-10.623 6.49-18.95 9.124-31.049 9.824-11.807.683-19.441-.808-25.713-5.024-6.273-4.215-9.287-8.83-9.287-14.218 0-5.19 2.156-8.078 7.36-9.859l3.859-1.322-2.298-2.141c-2.423-2.257-8.428-2.82-12.503-1.172m42.228 5.483c-1.455 1.349-2.646 3.208-2.646 4.132s-.955 3.226-2.123 5.115c-2.488 4.026-2.151 10.235.728 13.417 1.856 2.051 2.228 2.043 12.634-.261l4.74-1.049-4.536-4.153c-3.32-3.04-4.689-5.143-5.111-7.849-.692-4.438.111-8.104 2.241-10.234 2.782-2.782-2.883-1.939-5.927.882m112.062 6.725c-.985 5.128-3.102 13.131-4.704 17.786-1.602 4.654-2.761 8.613-2.577 8.797 1.327 1.327 9.99-29.996 9.381-33.92-.169-1.092-1.114 2.21-2.1 7.337m-236.634-6.284c-3.514.959-3.62 2.748-.205 3.431 6.512 1.302 18.615 8.427 31.3 18.425 21.669 17.08 29.801 21.976 44.434 26.753 8.934 2.916 12.094 3.099 15.259.882 2.827-1.98 2.156-2.655-4.862-4.89-15.355-4.891-26.475-11.366-45.5-26.492-6.05-4.81-13.25-10.108-16-11.774-8.154-4.94-19.119-7.784-24.426-6.335m133.146 1.357c-1.04 1.268-1.544 3.885-1.335 6.923.167 2.432 5.001 7.827 7.013 7.827.946 0 2.563-.617 3.594-1.37 1.777-1.3 1.683-1.537-1.809-4.604-2.886-2.534-3.683-3.968-3.683-6.63 0-3.532-1.804-4.557-3.78-2.146m-40.94 1.77c-3.252 1.309-3.992 5.629-1.686 9.839 2.131 3.89 5.18 6.379 10.476 8.552 3.257 1.337 3.816 1.304 6.387-.383l2.817-1.848-4.277-2.182c-6.072-3.097-9.997-7.7-9.997-11.721 0-3.492-.26-3.649-3.72-2.257m105.214 10.986c-.998 1.104-1.556 2.265-1.24 2.581.95.951 4.746-1.547 4.746-3.122 0-2.038-1.362-1.828-3.506.541m-202.416 4.959-3.422 1.748 3.648.684c5.584 1.048 12.815 5.26 28.943 16.859 16.468 11.844 28.788 19.543 37.29 23.303 7.127 3.152 21.828 7.452 25.325 7.408 2.331-.03 7.138-2.925 7.138-4.3 0-.281-4.387-1.88-9.75-3.552-16.866-5.258-28.32-11.698-54.25-30.502-18.458-13.386-26.361-16.022-34.922-11.648m204.907 12.081-2.485 1.91 2.281.022c1.255.012 2.548-.672 2.874-1.521.911-2.374.056-2.505-2.67-.411m2.515 18.954c-3.35 2.218-2.915 2.602.953.839 1.401-.638 2.547-1.538 2.547-2 0-1.134-.071-1.11-3.5 1.161m-76.867 2.46c-2.173 1.744-2.644 2.699-1.946 3.944.817 1.461 1.173 1.374 3.207-.791 1.258-1.339 2.134-3.114 1.947-3.944-.277-1.226-.881-1.077-3.208.791m-12.873 18.015c-1.76 1.549-2.518 2.991-2.12 4.03.527 1.373 1.057 1.201 3.491-1.13 2.686-2.574 3.813-5.415 2.119-5.343-.412.017-1.983 1.117-3.49 2.443" fill-rule="evenodd"/></svg>

<svg xmlns="http://www.w3.org/2000/svg" width="312" height="312" viewBox="0 0 312 312" version="1.1">
	<path d="M 142.269 12.693 C 143.242 12.947, 144.592 12.930, 145.269 12.656 C 145.946 12.382, 145.150 12.175, 143.500 12.195 C 141.850 12.215, 141.296 12.439, 142.269 12.693 M 157.813 12.683 C 158.534 12.972, 159.397 12.936, 159.729 12.604 C 160.061 12.272, 159.471 12.036, 158.417 12.079 C 157.252 12.127, 157.015 12.364, 157.813 12.683 M 167 13.068 C 174.509 13.999, 197.058 21.268, 208 26.285 C 216.014 29.960, 222.195 33.668, 228.360 38.500 C 244.201 50.916, 249.036 54.970, 251.915 58.250 C 255.318 62.126, 258 63.118, 258 60.500 C 258 58.156, 260.198 58.733, 262.764 61.750 C 278.744 80.540, 286.212 94.738, 292.541 118.361 C 293.847 123.234, 295.567 128.217, 296.365 129.434 C 297.162 130.651, 298.025 132.514, 298.281 133.573 C 299.398 138.182, 297.925 128.842, 296.536 122.509 C 290.318 94.146, 274.765 67.763, 252.727 48.194 C 241.136 37.901, 233.809 32.851, 221.344 26.562 C 202.612 17.113, 183.009 11.847, 167.619 12.131 L 160.500 12.263 167 13.068 M 130.829 13.504 C 130.552 13.781, 127.665 14.484, 124.413 15.067 C 102.417 19.006, 74.005 34.123, 55 52 C 52.064 54.761, 53.455 53.936, 59 49.624 C 81.790 31.907, 102.972 21.186, 124.500 16.472 C 128.900 15.509, 133.850 14.374, 135.500 13.951 L 138.500 13.180 134.917 13.090 C 132.946 13.041, 131.107 13.227, 130.829 13.504 M 82.256 61.645 C 78.429 63.532, 75.446 68.001, 74.458 73.330 C 73.703 77.399, 73.571 77.500, 67.729 78.471 C 62.937 79.268, 57.224 84.240, 54.798 89.724 C 52.402 95.141, 51.448 105.364, 52.862 110.473 C 53.808 113.890, 53.668 115.054, 51.864 118.780 C 50.072 122.482, 49.826 124.477, 50.176 132.468 C 50.550 141.031, 50.939 142.537, 54.781 150.290 C 58.856 158.514, 66.999 168.985, 69.343 169.015 C 69.979 169.023, 74.505 171.048, 79.400 173.515 C 84.294 175.982, 88.409 178, 88.543 178 C 88.677 178, 88.326 176.181, 87.761 173.958 C 86.962 170.808, 86.030 169.621, 83.537 168.580 C 76.627 165.693, 63.680 149.944, 65.627 146.794 C 66.784 144.923, 69.100 146.276, 70.951 149.904 C 73.105 154.127, 82.200 164, 83.935 164 C 84.563 164, 85 161.678, 85 158.346 C 85 153, 84.785 152.508, 81.056 149.316 C 78.888 147.460, 75.749 143.557, 74.082 140.644 C 68.456 130.810, 66.336 114.342, 70.807 115.200 C 72.079 115.445, 72.534 116.668, 72.639 120.124 C 72.904 128.925, 78.145 141.616, 83.243 145.801 C 84.634 146.943, 85.023 146.433, 86.414 141.647 C 88.409 134.785, 88.399 134.378, 86.141 131.154 C 80.155 122.609, 78.445 103.163, 82.831 93.512 C 86.455 85.538, 93.256 79.656, 95.851 82.251 C 97.606 84.006, 97.288 84.659, 93.548 86.970 C 91.311 88.353, 89.112 91.109, 87.298 94.802 C 84.832 99.824, 84.510 101.568, 84.587 109.500 C 84.658 116.945, 85.124 119.494, 87.282 124.250 C 88.716 127.412, 90.280 130, 90.757 130 C 91.234 130, 92.590 128.694, 93.770 127.097 C 95.563 124.672, 95.758 123.645, 94.958 120.854 C 93.328 115.169, 93.852 105.923, 96.084 101 C 98.826 94.952, 101.542 92.187, 107.500 89.377 C 113.140 86.718, 116.801 86.482, 122.250 88.426 L 126 89.764 126 85.250 C 126 82.533, 125.231 79.495, 124.069 77.618 C 121.719 73.823, 116.560 70.620, 113.912 71.313 C 112.521 71.677, 111.190 70.805, 109.245 68.255 C 103.771 61.078, 90.165 57.746, 82.256 61.645 M 111 63.500 C 112.638 65.243, 114.408 66, 116.849 66 L 120.349 66 118 63.500 C 116.362 61.757, 114.592 61, 112.151 61 L 108.651 61 111 63.500 M 126.736 74.178 C 129.142 77.816, 129.507 79.366, 129.557 86.152 C 129.588 90.439, 129.904 94.238, 130.260 94.593 C 130.616 94.949, 132.007 94.964, 133.352 94.626 C 135.305 94.136, 136.042 92.992, 137.012 88.948 C 138.049 84.627, 137.984 83.246, 136.568 79.538 C 134.245 73.457, 130.790 70, 127.034 70 L 123.972 70 126.736 74.178 M 106.880 94.956 C 99.430 99.891, 96.170 108.032, 98.079 116.934 L 99.123 121.799 102.847 120.209 L 106.570 118.618 106.172 112.359 C 105.677 104.579, 108.438 98.133, 113.839 94.463 L 117.464 92 114.404 92 C 112.686 92, 109.384 93.297, 106.880 94.956 M 125.274 106.093 C 120.607 108.403, 117.184 113.094, 116.332 118.344 C 115.790 121.683, 115.636 121.782, 110.378 122.219 C 97.014 123.327, 88.062 139.152, 89.288 159.500 C 90.223 175.012, 93.204 180.978, 104.842 190.630 C 114.422 198.574, 115.756 199.051, 111.630 193.053 C 102.017 179.077, 100.254 159.843, 107.271 145.500 C 110.379 139.148, 113.817 135.134, 117.960 133.020 C 121.234 131.350, 121.978 131.268, 122.973 132.467 C 123.915 133.602, 123.519 134.197, 120.933 135.534 C 110.615 140.870, 104.454 156.908, 106.978 171.867 C 107.621 175.683, 109.418 181.491, 110.971 184.775 C 114.411 192.048, 124.813 203.308, 132.152 207.701 C 140.924 212.953, 141.609 212.840, 137.071 206.892 C 134.808 203.927, 132.708 200.600, 132.405 199.500 C 132.101 198.400, 129.894 196.049, 127.501 194.275 C 124.441 192.006, 122.163 189.044, 119.825 184.291 C 116.668 177.874, 116.500 176.974, 116.501 166.516 C 116.503 156.882, 116.799 154.935, 118.862 151 C 124.900 139.479, 134.900 134.337, 146.060 137.014 C 154.766 139.103, 160.527 146.854, 158.106 153.222 C 157.257 155.455, 157.415 155.846, 159.314 156.209 C 162.960 156.906, 167.751 155.132, 170.035 152.238 C 172.904 148.604, 172.366 141.082, 168.979 137.477 C 166.909 135.274, 166.803 134.734, 167.953 132.260 C 171.499 124.634, 170.943 118.757, 166.198 113.728 C 162.149 109.435, 157.083 108.315, 151.449 110.466 L 146.832 112.230 143.666 109.249 C 140.433 106.205, 135.362 103.999, 131.601 104.001 C 130.445 104.001, 127.599 104.943, 125.274 106.093 M 146.441 105.935 C 147.880 107.524, 148.615 107.677, 150.565 106.789 C 153.766 105.330, 152.679 104, 148.286 104 C 144.794 104, 144.741 104.056, 146.441 105.935 M 169 109.398 C 169 109.617, 170.120 111.754, 171.488 114.148 C 174.298 119.064, 174.782 126.468, 172.622 131.500 C 171.483 134.152, 171.570 134.821, 173.364 137.263 C 176.358 141.335, 176.255 149.805, 173.162 153.992 C 171.876 155.733, 170.988 157.321, 171.188 157.522 C 172.070 158.404, 178.218 153.479, 179.621 150.767 C 181.746 146.657, 181.579 139.646, 179.262 135.719 C 177.535 132.792, 177.490 132.165, 178.782 128.999 C 181.941 121.258, 177.733 109, 171.918 109 C 170.313 109, 169 109.179, 169 109.398 M 299.232 143 C 299.232 144.925, 299.438 145.713, 299.689 144.750 C 299.941 143.787, 299.941 142.213, 299.689 141.250 C 299.438 140.287, 299.232 141.075, 299.232 143 M 129.259 143.927 C 121.014 149.900, 116.963 164.497, 120.337 176.072 C 121.992 181.747, 127.288 191, 128.881 191 C 130.364 191, 130.773 180.778, 129.403 177.962 C 124.222 167.316, 126.937 149.128, 134.607 143.095 C 139.002 139.638, 134.134 140.396, 129.259 143.927 M 300.286 156.500 C 300.294 159.250, 300.488 160.256, 300.718 158.736 C 300.947 157.216, 300.941 154.966, 300.704 153.736 C 300.467 152.506, 300.279 153.750, 300.286 156.500 M 299.286 169.500 C 299.294 172.250, 299.488 173.256, 299.718 171.736 C 299.947 170.216, 299.941 167.966, 299.704 166.736 C 299.467 165.506, 299.279 166.750, 299.286 169.500 M 156.333 167.184 C 154.194 168.218, 154.210 168.277, 157.575 171.642 C 159.839 173.906, 161.198 176.386, 161.620 179.026 C 162.332 183.475, 162.629 183.648, 165.777 181.443 C 169.542 178.806, 167.888 171.136, 162.783 167.561 C 160.235 165.776, 159.350 165.724, 156.333 167.184 M 198.738 171.250 C 197.240 172.389, 197.309 172.746, 199.521 175.275 C 201.647 177.706, 202.198 177.893, 203.974 176.784 C 206.483 175.217, 206.538 173.797, 204.171 171.655 C 201.981 169.673, 200.917 169.593, 198.738 171.250 M 142.418 172.969 C 139.294 174.233, 135.185 179.599, 134.015 183.944 C 131.587 192.962, 137.439 205.056, 147 210.780 C 156.058 216.204, 161.803 217.503, 176.500 217.454 C 193.617 217.396, 201.584 215.181, 221.589 204.916 C 237.300 196.854, 244.890 194.022, 250.932 193.968 C 256.833 193.916, 258.248 192.112, 257.847 185.152 C 257.657 181.859, 257.839 178.827, 258.251 178.416 C 258.663 178.004, 259 177.288, 259 176.825 C 259 175.339, 255.146 178.335, 254.658 180.200 C 254.326 181.470, 253.203 182.010, 250.844 182.035 C 240.881 182.140, 228.292 186.957, 212.049 196.881 C 201.426 203.371, 193.099 206.005, 181 206.705 C 169.193 207.388, 161.559 205.897, 155.287 201.681 C 149.014 197.466, 146 192.851, 146 187.463 C 146 182.273, 148.156 179.385, 153.360 177.604 L 157.219 176.282 154.921 174.141 C 152.498 171.884, 146.493 171.321, 142.418 172.969 M 184.646 178.452 C 183.191 179.801, 182 181.660, 182 182.584 C 182 183.508, 181.045 185.810, 179.877 187.699 C 177.389 191.725, 177.726 197.934, 180.605 201.116 C 182.461 203.167, 182.833 203.159, 193.239 200.855 L 197.979 199.806 193.443 195.653 C 190.123 192.613, 188.754 190.510, 188.332 187.804 C 187.640 183.366, 188.443 179.700, 190.573 177.570 C 193.355 174.788, 187.690 175.631, 184.646 178.452 M 296.708 185.177 C 295.723 190.305, 293.606 198.308, 292.004 202.963 C 290.402 207.617, 289.243 211.576, 289.427 211.760 C 290.754 213.087, 299.417 181.764, 298.808 177.840 C 298.639 176.748, 297.694 180.050, 296.708 185.177 M 60.074 178.893 C 56.560 179.852, 56.454 181.641, 59.869 182.324 C 66.381 183.626, 78.484 190.751, 91.169 200.749 C 112.838 217.829, 120.970 222.725, 135.603 227.502 C 144.537 230.418, 147.697 230.601, 150.862 228.384 C 153.689 226.404, 153.018 225.729, 146 223.494 C 130.645 218.603, 119.525 212.128, 100.500 197.002 C 94.450 192.192, 87.250 186.894, 84.500 185.228 C 76.346 180.288, 65.381 177.444, 60.074 178.893 M 193.220 180.250 C 192.180 181.518, 191.676 184.135, 191.885 187.173 C 192.052 189.605, 196.886 195, 198.898 195 C 199.844 195, 201.461 194.383, 202.492 193.630 C 204.269 192.330, 204.175 192.093, 200.683 189.026 C 197.797 186.492, 197 185.058, 197 182.396 C 197 178.864, 195.196 177.839, 193.220 180.250 M 152.280 182.020 C 149.028 183.329, 148.288 187.649, 150.594 191.859 C 152.725 195.749, 155.774 198.238, 161.070 200.411 C 164.327 201.748, 164.886 201.715, 167.457 200.028 L 170.274 198.180 165.997 195.998 C 159.925 192.901, 156 188.298, 156 184.277 C 156 180.785, 155.740 180.628, 152.280 182.020 M 257.494 193.006 C 256.496 194.110, 255.938 195.271, 256.254 195.587 C 257.204 196.538, 261 194.040, 261 192.465 C 261 190.427, 259.638 190.637, 257.494 193.006 M 55.078 197.965 L 51.656 199.713 55.304 200.397 C 60.888 201.445, 68.119 205.657, 84.247 217.256 C 100.715 229.100, 113.035 236.799, 121.537 240.559 C 128.664 243.711, 143.365 248.011, 146.862 247.967 C 149.193 247.937, 154 245.042, 154 243.667 C 154 243.386, 149.613 241.787, 144.250 240.115 C 127.384 234.857, 115.930 228.417, 90 209.613 C 71.542 196.227, 63.639 193.591, 55.078 197.965 M 259.985 210.046 L 257.500 211.956 259.781 211.978 C 261.036 211.990, 262.329 211.306, 262.655 210.457 C 263.566 208.083, 262.711 207.952, 259.985 210.046 M 262.500 229 C 259.150 231.218, 259.585 231.602, 263.453 229.839 C 264.854 229.201, 266 228.301, 266 227.839 C 266 226.705, 265.929 226.729, 262.500 229 M 185.633 231.460 C 183.460 233.204, 182.989 234.159, 183.687 235.404 C 184.504 236.865, 184.860 236.778, 186.894 234.613 C 188.152 233.274, 189.028 231.499, 188.841 230.669 C 188.564 229.443, 187.960 229.592, 185.633 231.460 M 172.760 249.475 C 171 251.024, 170.242 252.466, 170.640 253.505 C 171.167 254.878, 171.697 254.706, 174.131 252.375 C 176.817 249.801, 177.944 246.960, 176.250 247.032 C 175.838 247.049, 174.267 248.149, 172.760 249.475" stroke="none" fill="black" fill-rule="evenodd"/>
</svg>
